!!!OTL-incipit: ACH GOTT WIE WEH THUT SCHEIDEN
!!!ARE: Europa, Mitteleuropa, Deutschland
!!!SCT: Z0278
!!!TXL: @@DE
!!!YEM: Copyright 1995, estate of Helmut Schaffrath.
**kern	**text
*ICvox	*
*M6/8	*
*k[f#]	*
*e:	*
!LO:TX:a:t=Altdeutſch.	!
{8g	Ach
=1	=1
4a	Gott,
8g	wie
4f#	weh
8e	thut
=2	=2
4.e	Schei-
4d}	-den,
{8d	hat
=3	=3
4g	mir
8g	mein
8aL	Herʒ
8gJ	.
8a	ver-
=4	=4
4.b	-wundt,
4r}	.
{8g	So
=5	=5
4a	trab
8g	ich
4f#	über
8e	die
=6	=6
4.e	Hai-
4d}	-den,
{8d	und
=7	=7
4g	trau-
8g	-re
8aL	ʒu
8gJ	al-
8a	-ler
=8	=8
4.b	Stund.
4r}	.
{8b	Der
=9	=9
4dd	Stun-
8dd	-den
4dd	der
8dd	ſind
=10	=10
4dd	all
8a	ſo
4a}	viel,
{8a	mein
=11	=11
4cc	Herʒ
8cc	trägt
(8eeL	heim-
8ddJ)	.
8cc	-lich
=12	=12
4.cc	Lei-
4b}	-den,
{8b	wie-
=13	=13
8cc	-wohl
8b	ich
8a	oft
4g	fröh-
8f#	-lich
=14	=14
4.e	bin.
4r}	.
==	==
!!!Ag: Lyrisches Lied, Romanze, Abschieds - Lied
!!!ONB: ESAC (Essen Associative Code) Database: ZUCCAL
!!!AMT: compound duple
!!!AIN: vox
!!!EED: Helmut Schaffrath
!!!EEV: 1.0
!!!GTL: IV. Lyrische Lieder.
!!!URL-scan: https://www.digitale-sammlungen.de/de/view/bsb11160571?page=504
!!!ENC: Anna Maria Matuszewska
!!!EEV: 2025/01/30
*-	*-
